X: 153
T: Koncert f-moll cz. 2	 Op. 21
C: Frederic Chopin
%%abc-version 2.0
%%abcx-abcm2ps-target-version 5.9.1 (29 Sep 2008)
%%abc-creator hum2abc beta
%%abcx-conversion-date 2021/10/03 11:23:48
%%abc-edited-by Wojciech Jakubiak-Danek
%%abc-edited-by Jędrzej Mróz
%%abc-edited-by Leszek Kubiak
%%abcx-initial-encoding-date 2019-04-05
%%humdrum-veritas 2838587975
%%humdrum-veritas-data 3988586493
%%linebreak <none>
%%barnumbers 0
L: 1/16
M: C
N: Derived from 021-1a-BH-002.krn
P: SECOND CONCERTO | Pour le Piano | Avec Accompagnen! de l'Orchestre
Q: "[quarter]= 56." 1/4=56
%%staves {1 2}
V: 1 clef=treble
V: 2 clef=bass
K: Ab
[V:1] A8F4E2F2 | 
[V:2] [A,8A,,8][F,4F,,4][E,2E,,2][F,2F,,2] | 
[V:1] =D4[b4f4][=b4f4][_b4f4B4] | 
[V:2] [=D,4=D,,4][B4A4=D4][=B4A4=D4]_D4 & x4x4x4A2G2 | 
[V:1] [c'4=e4c4]C4B,4C2D2 | 
[V:2] [G4C4][C,4C,,4][B,,4B,,,4][C,2C,,2][D,2D,,2] | 
[V:1] E4[g2d2][a2c2][b4f4d4][c'2e2][b2d2] | 
[V:2] [E,4E,,4][B2E2][c2A2F2][d4B,4][G4E4] | 
[V:1] [a4c4]z4.[A4C4].[A4C4] | 
[V:2] [A4A,4]z4[E,4A,,4][E,4A,,4] | 
[V:1] (3:2:5x4 E,2C2A,2C2 !fermata!E3=D/E/ F/E/=D/E/F/G/A/B/ | 
[V:2] (3A,,,2A,,2 z2z4z8 | 
[V:1] {/cea}e'8{/=d'e'}!trill!e'6{/=d'e'} .!accent!a'/.f'/.e'/.c'/ | 
[V:2] A,,2E,2[E2C2A,2]E,2 [A2C2A,2]E,2[E2C2A,2]E,2 | 
[V:1] b4!accent!a4a aba .g.a.b.c' | 
[V:2] .F,,2C,2[C2A,2F,2]C,2 [F2A,2F,2]C,2[C2A,2F,2]C,2 | 
[V:1] !arpeggio![d'4f4d4]d'2>d'2 {/=Ae_g} (5:4:5c'd'c'=bc' (3e'2d'2c'2 & x4[f4B4]x4x4 | 
[V:2] B,,,2F,2[F2D2B,2]F,2 B,,2_G,2[_G2E2=A,2]G,2 | 
[V:1] c'4>b4 {/ga}!trill!a6{/ga} c'3/b/ | 
[V:2] B,,,2F,2[F2D2B,2]F,2 _F,,2_F,2[A2D2B,2]F,2 | 
[V:1] a2>g2!trill!g4{/f2g2b2a2} g2>f2!trill!f4{/=e2f2a2g2} | 
[V:2] .E,,2E,2[G2D2B,2]E,2 .E,,2E,2[F2C2A,2]E,2 | 
[V:1] f2>_e2!trill!e4{/=d2e2g2f2} (3:2:6e_dedcd (3:2:6cd!accent!f-fed | 
[V:2] x4x4F,4x4 & .E,,2G,2[E2B,2]G,2 {/F,,} F,2[D2A,2] G,,2[E2B,2E,2] | 
[V:1] c4!accent!c2>c2 c2>F2 (3:2:7Bdfbg'/z/f' | 
[V:2] A,,,2E,2A,2C2 D,,2[D2B,2F,2][K:clef=treble] [F2D2B,2][B2F2D2][K:clef=bass] | 
[V:1] b8{/=a2b2d'2c'2}b6[=b2=B2] | 
[V:2] [E,,2E,,,2][K:clef=treble] [E2B,2G,2][G2E2B,2][B2G2E2] [e2B2G2][B2G2E2][G2E2B,2][E2D2G,2][K:clef=bass] | 
[V:1] [c'4c4][d'2d2]>[c'2c2][b4B4][e'4e4] | 
[V:2] x8[E8D8] & A,,,2E,2[E2C2A,2]E,2 A,2G,2F,2G,2 | 
[V:1] [a4A4][g2G2]>[f2F2][g8G8] | 
[V:2] x4[E8D8]x4 & [E2C2A,2]E,2B,2E,2 B,2E,2[E2D2B,2]E,2 | 
[V:1] [a4A4][g2G2]>[f2F2][g4G4]{/c} [c'3c3][bB] | 
[V:2] x4x4x2E,6- & .A,,2E,2[E2C2A,2]E,2 .E,,2E,2E2D2 | 
[V:1] [a4A4].[g2G2].[f2F2].[g4G4]z4 | 
[V:2] C2E2B,2A,2 B,2E2A,2G,2 & x4<E4x2E6 | 
[V:1] !arpeggio!f4e2d2!arpeggio![e4d4A4E4]!accent!!arpeggio![a4e4c4A4E4] & !arpeggio![A8F8]x4x4 | 
[V:2] D,,2A,2F,2D2 A,,2A,2E,2C2 | 
[V:1] !arpeggio![e4A4E4]!arpeggio!!trill![d4B4]{/cedc} [c2A2E2] z2!accent![^f4e4=A4^F4] & x4!arpeggio!E4x8 | 
[V:2] F,4G,4A,4=A,4 & F,,2A,2 G,,2B,2 A,,2C2 =A,,2E2 | 
[V:1] .[g2e2B2G2] (3z [g'e'][f'=d'] (3b[e'c'][d'b] (3g[c'a][bg] (3e[af][ge] (3c[f=d][ec] (3A[dB][cA] (3.[BG].[c=A^F].[d_A=F] | 
[V:2] .B,,2B,2[E2G,2]B,2 B,,,2B,2F2B,2 | 
[V:1] [e4-G4E4](3:2:19e!accent!_fa _c'_f'e' =d'=f''z/=d''/ _c''a'=f' =d'c'a =f=dg | 
[V:2] E,,2E,2!accent![_F2_C2A,2]E,2 !accent![=F2C2A,2]E,2[K:clef=treble] [A2=D2_C2][K:clef=bass]E,2[K:clef=treble] | 
[V:1] (3:2:6!accent!fegbe'g' (3:2:6!accent!_gf=ac'f'=a' (3:2:6!accent!gfbd'f'b' (3:2:6_a'f'=d'b=a!accent!f | 
[V:2] [G2E2B,2][K:clef=bass]E,2[K:clef=treble] [=A2E2C2][K:clef=bass]E,2[K:clef=treble] [B2D2][K:clef=bass]E,2[K:clef=treble] [B2=D2][K:clef=bass]E,2 | 
[V:1] (3:2:23gBeGEB, GB,EG,E, z z2 F,FB,D FfBdfd' | 
[V:2] !arpeggio![G2B,2E,2] z2 z2 (3:2:5z2 E,, B,,,D, z z2z4 | 
[V:1] !accent![E4D4B,4E,4]!accent![e4d4B4E4]{/=DE}!accent!!trill!E6{/DE} .F/.G/.A/.B/ | 
[V:2] [G,,4E,,4G,,,4][G,4E,4B,,4G,,4]z8 | 
[V:1] {/c2e2a2}e'8(29:16:29e'/f'/e'/=d'/e'/f'/g'/a'/b'/c''/g'/b'/a'/g'/f'/e'/_d'/c'/d'/c'/b/c'/d'/e'/g'/f'/e'/d'/c'/ | 
[V:2] A,,,2E,2[E2C2A,2]E,2 [A2C2A,2]E,2[E2C2A,2]E,2 | 
[V:1] b z2!accent!a4a!trill!a6.g/.a/.b/.c'/ | 
[V:2] F,,,2C,2[C2A,2F,2]C,2 [F2A,2F,2]C,2[C2A,2F,2]C,2 | 
[V:1] !arpeggio![d'4f4d4]{/Fdf} d'2d'>d' {/=Ae_g} (27:16:27c'/d'/c'/=b/c'/d'/e'/f'/a'/_g'/e'/c'/=a/g/e/c/=A/_B/A/^G/A/B/=B/c/e/d/c/ | 
[V:2] B,,,2F,2[D2B,2]F,2 B,,,2_G,2[_G2E2=A,2]G,2 | 
[V:1] c4>B4 {/GA}!trill!A6{/GA} (3cBA | 
[V:2] .B,,2F,2[F2D2B,2]F,2 ._F,,2_F,2[D2A,2]F,2 | 
[V:1] !accent!A2>G2- (15:8:15G/A/B/c/d/e/f/g/a/g/f/g/b/a/g/ !accent!g2>f2!trill!f4{/=e2f2a2g2f2} | 
[V:2] .E,,2E,2[G2D2B,2]E,2 .E,,2E,2[F2C2A,2]E,2 | 
[V:1] !accent!f2>e2!trill!e4{/=d2e2g2f2e2} (3:2:6e_de!mordent!dcd {/d} (7:4:14f'/e'/d'/b/g/f/e/d/B/E/F/G/A/B/ | 
[V:2] .E,,2G,2[E2B,2]G,2 .F,,2[A2D2A,2] .G,,2[D2B,2E,2] | 
[V:1] (3:2:6.c2.c2.c2c2{/ce}d2>c2 !accent!c2-(3:2:10cFc Bdfbg'/z/f' | 
[V:2] .A,,,2[A,2C,2][C2A,2][E2A,2] .D,,2[B,2F,2][K:clef=treble] [F2B,2A,2][A2D2B,2][K:clef=bass] & x4E,4x4x4 | 
[V:1] b8{/=abc'bd'c'} b2 z2!accent!e4- | 
[V:2] .E,,2[K:clef=treble][E2B,2G,2][G2E2B,2][B2G2E2] [e2B2G2][B2G2E2][G2E2B,2][E2D2G,2] | 
[V:1] [c'4e4c4][b2B2]>[a2A2][a4A4][d'4d4] & x4x2e8x2 | 
[V:2] [K:clef=bass].A,,,2A,2[_G2C2]A,2 .D,,2A,2[F2D2F,2]A,2 | 
[V:1] (7:4:7[c'2c2][d'2d2][c'2c2][b2B2][c'2c2][d'2d2][e'2e2]a6b2 & _g8A6B2 | 
[V:2] A,,,2A,2!accent![_G2C2E,2]A,2 D,,2A,2!accent![F2D2F,2]A,2 | 
[V:1] !arpeggio![c'2a2e2]> !trill!e2 (3:2:6.=d.e.f.g.a.b!arpeggio!_c'4b2a2 & !arpeggio!c8!arpeggio![=d8A8] | 
[V:2] .A,,,2[C2E,2][E2C2A,2][A2C2A,2] ._F,,2[=D2A,2_F,2][D2B,2F,2][D2_C2F,2] | 
[V:1] !arpeggio![g4e4B4G4]e2>e2 !accent!e2>A2 (3:2:7d_fad'a'z/a'/ | 
[V:2] .E,,2[E2B,2G,2][E2B,2G,2][E2B,2G,2] _F,2[D2A,2][D2A,2][D2A,2] | 
[V:1] !accent!a'2_c'2 _c2zc2< !accent!c2_F (7:4:8GBd_fg_f'z/f'/ | 
[V:2] E,2[_C2A,2][C2A,2][C2A,2] D,2[B,2G,2][_F2B,2G,2][F2B,2G,2] | 
[V:1] !accent!_f'4>e'4x4x4 & z4a4e'2>=d'2 {/b_c'} !trill!c'2ba | 
[V:2] _C,2[E2A,2E,2][E2A,2E,2][E2A,2E,2] B,,2[=D2A,2F,2][D2A,2F,2][D2A,2F,2] | 
[V:1] (21:16:21g/a/g/^f/g/a/_c'/b/a/g/_f/e/f/e/=d/e/f/B/f/=e/_d/ !accent!d2>_c2 (7:4:7__BcBABcd | 
[V:2] _F,4=G,,4A,,4D,4 & _F,2[D2A,2] =G,,2[D2B,2E,2] A,,2[_C2A,2E,2] D,2[__B,2_F,2] | 
[V:1] !accent!_c2>__B2A8{/=G} (9:8:9G/A/G/.F/.G/.A/._B/z/.A/ | 
[V:2] .E,,2E,2_E2E,2 E2E,2[D2B,2]E,2 | 
[V:1] A2 z2 [d2D2]>[_c2_C2][__B4__B,4]E,/_F,/_G,/F,/E,/D,/_C,/B,,/ & x4_F8[=G4D4] | 
[V:2] [_C2A,2_F,2] z2 [__B,,2__B,,,2]>[_C,2_C,,2][D,4D,,4]E,,/_F,,/_G,,/F,,/E,,/D,,/_C,,/B,,,/ | 
[V:1] [A4_C4][d2D2]>[_c2C2][__B4__B,4]{/[=G2D2]} (15:8:15E,/_B,/D/_F/E/D/_C/B,/A,/G,/_F,/E,/D,/_C,/B,,/ & x4_F8x4 | 
[V:2] A,,2 z2 [G,,2G,,,2]>[A,,2A,,,2][D,4D,,4](15:8:15E,,/B,,/D,/_F,/E,/D,/_C,/B,,/A,,/G,,/_F,,/E,,/D,,/_C,,/B,,,/ & A,,,2 z2x4x4x4 | 
[V:1] A4[d'2_f2d2]>[_c'2f2_c2][__b4f4__B4](7:4:14E,/G,/B,/D/E/G/B/d/e/g/b/d'/e'/g'/ | 
[V:2] A,,2 z2 [G,,2G,,,2]>[A,,2A,,,2][D,4D,,4](7:4:14E,,/G,,/B,,/D,/E,/G,/B,/D/[K:clef=treble]E/G/B/d/e/g/ & A,,2 z2x4x4x4 | 
[V:1] a'4z4z2 z e' b2-b/_c'/d'/c'/ | 
[V:2] a4z4z2 z e B2-B/c/d/_c/ | 
[V:1] b2a2 z .g.a.b (7:4:15_c'ba_g_fed_cdcBcdz/e/ | 
[V:2] B2A2 z .G.A.B (7:4:15_cBA_G_FED_CDCB,CDz/E/ | 
[V:1] e4A4z2 AG (5:4:5.A.B._c.B.c | 
[V:2] E4A,4[K:clef=bass]z2 .A,.G, (5:4:5.A,.B,._C.B,.C | 
[V:1] e4d4z4(5:4:10d/e/_f/_g/a/b/_c'/e'/d'/c'/ | 
[V:2] !accent!E4D4z4[K:clef=treble](5:4:10D/E/_F/_G/A/B/_c/e/d/c/ | 
[V:1] _c'4b4z8 & x8[_F4D4A,4][F4D4A,4] | 
[V:2] _c4B4[K:clef=bass]z8 & x4x4A,,4A,,4 | 
[V:1] z8z2 z _f' =c'2-c'/d'/e'/d'/ & [_F4D4A,4]>x4 x2x6 | 
[V:2] z8z2[K:clef=treble] z _f =c2-c/d/e/d/ & A,,4>x4 x2x6 | 
[V:1] d'4g4(5:4:5z ga=ab (7:4:7de_g_fed_c | 
[V:2] d4G4(5:4:5z GA=AB (7:4:7DE_G_FED_C[K:clef=bass] | 
[V:1] (21:16:22B_cB=ABc.e.d.c.B._A.=G.A.B!accent!D!accent!E!accent!_F!accent!B,!accent!F!accent!Ez/!accent!D/ | 
[V:2] (21:16:22B,_CB,=A,B,CEDCB,_A,=G,A,B,D,E,_F,B,,F,E,z/D,/ | 
[V:1] D4C4{/E2_G2__B2c2e2_g2} .__b2.a._g ._f.e.d.c | 
[V:2] !accent!D,4!accent!C,4{/E,2_G,2__B,2C2E2_G2}[K:clef=treble] .__B2.A._G ._F.E.D.C | 
[V:1] !accent!e4d2 z A_f4(9:8:10.e/._f/.e/.d/.e/.f/._g/.a/z//e// | 
[V:2] E4D2 z A,_F4(9:8:10.E/._F/.E/.D/.E/.F/._G/.A/z//E// | 
[V:1] _g4_f4=g/a/b/_c'/ b/c'/d'/e'/ _f'3g | 
[V:2] _G4_F4=G/A/B/_c/ B/c/d/e/ _f3G | 
[V:1] .a2 z2!accent!_c''4-(5:4:20c''/g'/a'/b'/a'/f'/=d'/_c'/g/a/b/a/f/=d/_c/A/B/A/G/A/ | 
[V:2] .A2 z2!accent!_c'4-(5:4:20c'/g/a/b/a/f/=d/_c/G/A/B/A/F/=D/[K:clef=bass]_C/A,/B,/A,/G,/A,/ | 
[V:1] !accent!_c4B4z4_G3G | 
[V:2] _C4B,4z4_G,3G, | 
[V:1] _G4-(3G2A2B2 (7:4:7_c2d2e2d2c2E2_F2 | 
[V:2] _G,4-(3G,2A,2B,2 (7:4:7_C2D2E2D2C2E,2_F,2 | 
[V:1] (5:4:5_G!accent!__A_FDB,__A,4_G,4[b4_f4] & x12[_f4d4G4] | 
[V:2] (5:4:5_G,!accent!__A,_F,D,B,,__A,,4_G,,4_G,4 & x12z4 | 
[V:1] z2 [_c'2e2]_G4AB (5:4:10_c/d/_f/e/d/c/B/c/E/_F/ & x2 [_c2_C2]x4x2x4 | 
[V:2] z2 x2_G,4A,B, (5:4:10_C/D/_F/E/D/C/B,/C/E,/_F,/ & x2 _C,2x4x2x4 | 
[V:1] (3:2:6_G!accent!__B>AGEC__B,4A,4[c'4a4_g4] & x4x4x4[e4A4] | 
[V:2] (3:2:6_G,!accent!__B,>A,G,E,C,__B,,4A,,4z4 | 
[V:1] [d'4_f4](9:8:9D/E/_F/_G/A/B/c/d/e/_f4(3df_g(5:4:5a/b/c'/d'/e'/ & [d4D4]x4x4x4 | 
[V:2] z4(9:8:9D,/E,/_F,/_G,/A,/B,/C/D/E/_F4[K:clef=treble](3DF_G(5:4:5A/B/c/d/e/ | 
[V:1] _f'2(3.d'.__b._f (3:2:6d__B_FD__EF__B,4{/G,A,}!accent!!trill!A,4 | 
[V:2] _f2(3.d.__B._F[K:clef=bass] (3:2:6D__B,_F,D,__E,F,__B,,4{/G,,A,,}A,,4 | 
[V:1] =G,4-(3:2:12G,/A,/B,/_C/D/E/F/G/A/B/_c/d/!accent!e4(3_cef(5:4:5g/a/b/_c'/d'/ | 
[V:2] =G,,4-(3:2:12G,,/A,,/B,,/_C,/D,/E,/F,/G,/A,/B,/_C/D/E4[K:clef=treble](3_CEF(5:4:5G/A/B/_c/d/ | 
[V:1] e'>_c' (3aec' (7:4:7ae_cAE_CA, (3:2:6=D.A,.=A,.B,.C._D(7:4:7.C.B,._A,.G,.A,._G,._F, | 
[V:2] e>_c (3AEc (7:4:7AE_C[K:clef=bass]A,E,_C,A,, (3:2:6=D,A,,=A,,B,,C,_D,(7:4:7C,B,,_A,,G,,A,,_G,,_F,, | 
[V:1] E,4z4z4(7:4:7z ede_fdB | 
[V:2] E,,4z4z4(7:4:7z EDE_FDB, | 
[V:1] A4G2 z e (5:4:5e_fede(3_g2f2d2 | 
[V:2] A,4G,2 z E (5:4:5E_FEDE(3_G2F2D2 | 
[V:1] _c2B2 (3.B2.B2.B2 B2AB (5:4:5cBA_CD | 
[V:2] _C2B,2 (3B,2B,2B,2 B,2A,B, (5:4:5CB,A,_C,D, | 
[V:1] E8-(21:16:21E/=D/E/F/G/A/B/_c/d/e/f/g/a/_c'/b/a/c/d/e/_g/_f/ & x4[E2E,2]>[E2E,2]x8 | 
[V:2] E,8-(21:16:21E,/=D,/E,/F,/G,/A,/B,/_C/[K:clef=treble]D/E/F/G/A/_c/B/A/C/D/E/_G/_F/ | 
[V:1] e8{/=d2e2}!trill!e8 | 
[V:2] E8{/=D2E2}!trill!E8 | 
[V:1] [a8f8]x8 & !trill!=d16 | 
[V:2] !trill!=D16 | 
[V:1] [b8g8]{/c2d2e2f2g2a2b2c'2d'2e'2f'2g'2a'2} b'2z4[b'2f'2] & !fermata!!trill!_d8x2x4x2 | 
[V:2] !fermata!!trill!_D8{/C2D2E2F2G2A2B2c2d2e2f2g2a2} .b2z4d'2 | 
[V:1] [a'e'][e''g'][c''f'][a'e'] [g'd'][d'f'][b'e'][g'd'] [f'c'][c''e'][a'd'][f'c'] [e'b][d'b][g'c'][e'b] | 
[V:2] c'bac' bagb agfa gfeg | 
[V:1] [d'a][a'c'][f'b][d'a] [c'g][g'b][e'a][c'g] [bf][f'a][d'g][b2f2]< a2[ge] & x12x f_f x | 
[V:2] x8x4x2 B2[K:clef=bass] & fedf edce dcBd c_cBE | 
[V:1] {/c2c2e2a2}e'8(29:16:29e'/=f'/e'/=d'/e'/f'/g'/a'/b'/c''/g'/b'/a'/g'/f'/e'/_d'/c'/d'/c'/b/c'/d'/e'/g'/f'/e'/d'/c'/ | 
[V:2] .A,,,2E,2[E2C2A,2]E,2 [A2C2A,2]E,2[E2C2A,2]E,2 | 
[V:1] b2 z2!accent!a4-(3:2:6.a.a.a.a.a.a {/g}!trill!a4{/.g2.a2.b2.c'2} | 
[V:2] .F,,2C,2[C2A,2F,2]C,2 [F2A,2F,2]E,2[C2A,2F,2]C,2 | 
[V:1] !arpeggio![d'4b4f4d4B4][d'2f2d2]d'>d' (5:4:40!accent!=A,//A,//A,//B,//A,//^G,//A,//C//E//_G//=A//c//e//_g//=a//c'//d'//=d'//e'//=e'//f'//_a'//_g'//_e'//c'//=a//g//e//c//A//B//A//^G//A//B//=B//c//e//d//c// | 
[V:2] .B,,,2F,2!arpeggio![F2D2B,2]F,2 B,,,2[_G,2B,,2][_G2E2=A,2]G,2 | 
[V:1] c4>B4 {/GA}!trill!A6{/GA} (3cBA | 
[V:2] B,,,2F,2[D2B,2]F,2 ._F,,2_F,2[D2A,2]F,2 | 
[V:1] (3!accent!AGA (3Bcd (3efg {/g} !accent!g'2- (3:2:10g'f'e' .d'.c'.b .a.gz/f/ !accent!F2- | 
[V:2] .E,,2E,2[G2D2B,2]E,2 .E,,2E,2[F2C2A,2]E,2 | 
[V:1] (3!trill!FE^F G/A/=A/B/ =B//c//^c//=d//e//g//=f//e// {/e} e'2-(3:2:6e'=d'=d'_d'c'd' {/_d} (19:16:19!accent!f''//e''//d''//b'//g'//f'//e'//d'//b//g//f//e//d//_B//.E//.=F//.G//.A//.B// | 
[V:2] E,,2G,2[E2B,2]G,2 [F,2F,,2][K:clef=treble][A2D2A,2][K:clef=bass] [G,2G,,2][K:clef=treble][dEB,] z[K:clef=bass] | 
[V:1] (3c2c2c2 (3c2{/e}!accent!d2>c2 !accent!c2>=E2 F/c/B/d/f/b/g'/z//f'// | 
[V:2] .A,,,2[A,2C,2][C2A,2E,2][E2A,2] .D,,2[B,2F,2][K:clef=treble] [F2A,2][A2D2B,2][K:clef=bass] | 
[V:1] b8{/b2=a2b2c'2b2d'2c'2}b4z2 e2 | 
[V:2] .E,,2[K:clef=treble] [E2B,2G,2][G2E2B,2][B2G2E2] [e2B2G2][B2G2E2][G2E2B,2][E2D2G,2] | 
[V:1] [c'4c4][d'2d2][c'2c2][b4B4][e'4e4] | 
[V:2] [K:clef=bass]x4x4[E8D8] & .[A,,2A,,,2]E,2[E2C2A,2]E,2 A,2G,2F,2G,2 | 
[V:1] [a4A4][g2G2]>[f2F2][g8G8] | 
[V:2] x2 E,2E8x4 & [E2C2A,2]E,2B,2A,2 B,2E,2[E2D2B,2]E,2 | 
[V:1] [a4A4][b2B2][a2A2][g4G4]{/c}[c'3c3][bB] | 
[V:2] x8x2E,6 & .A,,2E,2[E2C2A,2]E,2 .E,,2E,2E2D2 | 
[V:1] [a4A4].[g2G2].[f2F2].[g8G8] | 
[V:2] x4<E4x2E6 & C2E2B,2A,2 B,2E2A,2G,2 | 
[V:1] f4e2d2!arpeggio![e4d4B4E4]!accent!!arpeggio![a4c4A4E4] & !accent![A8F8]x4x4 | 
[V:2] .D,,2A,2F,2D2 .G,,2[B,2E,2] .A,,2[C2E,2] | 
[V:1] !arpeggio![e4A4E4]!arpeggio!!trill![d4B4E4]{/c2e2d2c2} [c2A2E2] z2[f4=B4_A4F4] | 
[V:2] F,4G,4A,4=D,4 & F,,2A,2 G,,2B,2 A,,2C2 =D,,2=B,2 | 
[V:1] .[EC].[FD].[GE].[AF] .[BG].[cA].[dB].[=d=B] .[ec].[f_d].[ge].[af] .[_bg].[c'a].[_d'b].[e'c'] | 
[V:2] .E,,2E,2[E2C2A,2]E,2 [A2C2A,2]E,2[E2A,2]E,2 | 
[V:1] [_f'd'][f'b][d'__b][d'a] [_b=g][b_f][ge][g=d] [_f_d][fB][d__B][dA] [=BG]!accent![G_F]!accent![GE]!accent![GD] | 
[V:2] .E,,2E,2[G2D2B,2]E,2 .E,,2E,2[D2B,2]E,2 | 
[V:1] [A4C4]A4F4E2F2 | 
[V:2] [A,4A,,4][A,4A,,4][F,4F,,4][E,2E,,2][F,2F,,2] | 
[V:1] =D4[b4f4][=b4f4][=b4f4=B4] & x4x4x4A2G2 | 
[V:2] [=D,4=D,,4][B4A4D4][=B4A4D4]_D4 | 
[V:1] [c'4=e4]C4B,4C2D2 | 
[V:2] [G4C4][C,4C,,4][B,,4B,,,4][C,2C,,2][D,2D,,2] | 
[V:1] E4[g2d2][a2c2][b4f4d4][c'2e2][b2d2] | 
[V:2] [E,4E,,4][B2E2][A2F2][d4B,4][G4E4] | 
[V:1] [a4c4]z4.A4.A4 & x8C4C4 | 
[V:2] [A4A,4]z4[E,4A,,4][E,4A,,4] | 
[V:1] z2 E,2C2A,2C2E2c2A2c2e2a2c'2 | 
[V:2] !fermata!A,,,2 x2x8x8x4 | 
[V:1] !fermata!a'16 |]  
[V:2] x16 |]
